!!!SOCIAL_FUNCTION:	songs connected with ceremonies
!!!PDT:	1929
!!!OTL: No_117_The_Morning_Is_Shining_Upward.krn
!!!REG: Southwest
!!!LANG: Non-Tone
!!!LING_GROUP: Uto-Aztecan
**kern
*staff1
=1-
*clefF4
*k[b-e-a-d-]
*M2/4
4E-\
8.c\L
16B-\Jk
=2
8.c\L
16A-\Jk
4A-\
=3
8F\L
16A-\L
16F\JJ
16B-\LL
16B-\
16.B-\
32A-\JJk
=4
8E-/L
16C/L
16C/JJ
8C/
8r
=5
8C\L
16E-\L
16E-\JJ
(8.F/L
16C/Jk)
=6
8E-\
24E-\LL
24E-\
24E-\JJ
8E-/L
16C/L
16C/JJ
=7
8E-\L
16F\L
16E-\JJ
8F\L
16F\L
16F\JJ
=8||
*M3/4
8.F/L
16C/Jk
8.E-/L
16C/Jk
8.F/L
16C/Jk
=9
8E-\
24E-\LL
24E-\
24E-\JJ
4E-\
4r
==
*-
